public/img/industry/img-1.svg

<svg width="159" height="30" viewBox="0 0 159 30" fill="none" xmlns="http://www.w3.org/2000/svg">
<path d="M38.0436 12.5372C40.5936 12.5372 41.3641 14.8963 41.3641 16.1918C41.3597 16.1918 34.4941 16.1918 34.4902 16.1918C34.4902 14.3569 35.7497 12.5372 38.0436 12.5372ZM45.3674 23.4491C44.6419 23.6983 43.8863 23.9239 43.1302 24.0797C42.243 24.262 41.3247 24.3621 40.3913 24.3621C37.3752 24.3621 35.0141 23.3456 34.6274 20.9258H47.4947C47.5902 20.4611 47.7591 19.3361 47.7591 18.1526C47.7591 12.6525 45.0563 7.60352 38.1608 7.60352C31.4619 7.60352 27.8958 12.922 27.8958 18.8811C27.8958 25.7509 32.6397 29.6805 39.2619 29.6805C40.9486 29.6805 42.1813 29.5275 43.1991 29.3177C44.2558 29.0995 45.4197 28.7473 46.4041 28.3013L45.3674 23.4491Z" fill="#292930"/>
<path d="M137.937 12.5372C140.487 12.5372 141.258 14.8963 141.258 16.1918C141.253 16.1918 134.388 16.1918 134.384 16.1918C134.384 14.3569 135.644 12.5372 137.937 12.5372ZM145.26 23.4491C144.535 23.6983 143.779 23.9239 143.023 24.0797C142.135 24.262 141.218 24.3621 140.284 24.3621C137.269 24.3621 134.908 23.3456 134.522 20.9258H147.388C147.484 20.4611 147.652 19.3361 147.652 18.1526C147.652 12.6525 144.949 7.60352 138.055 7.60352C131.355 7.60352 127.79 12.922 127.79 18.8811C127.79 25.7509 132.533 29.6805 139.156 29.6805C140.842 29.6805 142.075 29.5275 143.094 29.3177C144.149 29.0995 145.314 28.7473 146.298 28.3013L145.26 23.4491Z" fill="#292930"/>
<path d="M50.9113 0.599609V29.228H57.8885V0.599609H50.9113Z" fill="#292930"/>
<path d="M71.902 24.4405C69.6353 24.4405 68.1464 22.172 68.1464 18.6631C68.1464 15.868 69.1442 12.8845 71.9259 12.8845C74.6098 12.8845 75.5626 15.9772 75.5626 18.6322C75.5626 22.1579 74.1148 24.4405 71.902 24.4405ZM71.8081 29.6808C77.2531 29.6808 82.7637 26.209 82.7637 18.4561C82.7637 13.8397 80.0626 7.63867 72.1503 7.63867C64.0048 7.63867 61.0331 13.6473 61.0331 18.8077C61.0331 25.2826 65.4742 29.6808 71.8081 29.6808Z" fill="#292930"/>
<path d="M85.7983 8.10156V29.2268H92.7756V8.10156H85.7983Z" fill="#292930"/>
<path d="M85.7983 0.608398V6.09334H92.7756V0.608398H85.7983Z" fill="#292930"/>
<path d="M98.3001 2.35384V8.09922H95.619V13.3344H98.3001V21.989C98.3001 26.7489 100.45 29.6615 105.356 29.6615C106.276 29.6615 107.315 29.5659 108.272 29.4208C109.158 29.2863 109.943 29.1232 110.287 29.0096C110.293 29.004 110.236 23.4915 110.236 23.4712C110.012 23.55 108.43 23.8188 107.851 23.8188C107.29 23.8188 106.456 23.7468 105.861 23.1292C105.435 22.6893 105.131 21.9722 105.131 20.8072V13.3344H109.641V8.09922C109.641 8.09922 105.726 8.09922 105.131 8.09922C105.131 7.47934 105.131 1.57422 105.131 1.57422L98.3001 2.35384Z" fill="#292930"/>
<path d="M114.444 2.35384V8.09922H111.763V13.3344H114.444V21.989C114.444 26.7489 116.593 29.6615 121.5 29.6615C122.42 29.6615 123.458 29.5659 124.414 29.4208C125.301 29.2863 126.087 29.1232 126.431 29.0096C126.436 29.004 126.379 23.4915 126.379 23.4712C126.155 23.55 124.574 23.8188 123.994 23.8188C123.433 23.8188 122.6 23.7468 122.004 23.1292C121.579 22.6893 121.276 21.9722 121.276 20.8072V13.3344H125.784V8.09922C125.784 8.09922 121.87 8.09922 121.276 8.09922C121.276 7.47934 121.276 1.57422 121.276 1.57422L114.444 2.35384Z" fill="#292930"/>
<path d="M150.656 25.7786C150.656 23.6209 152.385 21.8721 154.516 21.8721C156.647 21.8721 158.376 23.6209 158.376 25.7786C158.376 27.9381 156.647 29.6869 154.516 29.6869C152.385 29.6869 150.656 27.9381 150.656 25.7786Z" fill="#292930"/>
<path d="M0.896484 29.2591H8.7926C9.32704 29.2591 9.97315 29.2462 10.4804 29.2197C21.287 28.6544 25.7837 22.1783 25.7837 14.701C25.7837 5.36072 19.562 0.128906 8.82371 0.128906C6.06815 0.128906 3.6176 0.223969 0.896484 0.456281V29.2591ZM10.9904 23.5553C10.7004 23.5795 10.2643 23.5902 9.98482 23.5902H7.77259C7.77593 23.588 7.77259 5.99634 7.77259 5.99634C8.53759 5.92716 9.50982 5.88103 10.1598 5.88103C14.2159 5.88103 18.5381 8.54559 18.5381 14.7005C18.5381 21.122 14.4759 23.264 10.9904 23.5553Z" fill="#292930"/>
</svg>

<svg width="159" height="30" fill="none" xmlns="http://www.w3.org/2000/svg"><path d="M38.044 12.537c2.55 0 3.32 2.36 3.32 3.655H34.49c0-1.835 1.26-3.655 3.554-3.655zm7.323 10.912c-.725.25-1.48.475-2.237.63-.887.183-1.805.283-2.739.283-3.016 0-5.377-1.016-5.764-3.436h12.868c.095-.465.264-1.59.264-2.773 0-5.5-2.703-10.55-9.598-10.55-6.7 0-10.265 5.319-10.265 11.278 0 6.87 4.744 10.8 11.366 10.8 1.687 0 2.92-.154 3.937-.363 1.057-.219 2.22-.57 3.205-1.017l-1.037-4.852zm92.57-10.912c2.55 0 3.321 2.36 3.321 3.655h-6.874c0-1.835 1.26-3.655 3.553-3.655zm7.323 10.912c-.725.25-1.481.475-2.237.63-.888.183-1.805.283-2.739.283-3.015 0-5.376-1.016-5.762-3.436h12.866c.096-.465.264-1.59.264-2.773 0-5.5-2.703-10.55-9.597-10.55-6.7 0-10.265 5.319-10.265 11.278 0 6.87 4.743 10.8 11.366 10.8 1.686 0 2.919-.154 3.938-.363 1.055-.219 2.22-.57 3.204-1.017l-1.038-4.852zM50.911.6v28.629h6.977V.6h-6.977zM71.902 24.44c-2.267 0-3.756-2.268-3.756-5.777 0-2.795.998-5.779 3.78-5.779 2.684 0 3.637 3.093 3.637 5.748 0 3.526-1.448 5.808-3.661 5.808zm-.094 5.24c5.445 0 10.956-3.471 10.956-11.224 0-4.616-2.701-10.817-10.614-10.817-8.145 0-11.117 6.008-11.117 11.169 0 6.475 4.441 10.873 10.775 10.873zm13.99-21.578v21.125h6.978V8.102h-6.978zm0-7.494v5.485h6.978V.608h-6.978zM98.3 2.354v5.745H95.62v5.235H98.3v8.655c0 4.76 2.15 7.672 7.056 7.672.92 0 1.959-.095 2.916-.24.886-.135 1.671-.298 2.015-.411.006-.006-.051-5.519-.051-5.539-.224.079-1.806.348-2.385.348-.561 0-1.395-.072-1.99-.69-.426-.44-.73-1.157-.73-2.322v-7.473h4.51V8.1h-4.51V1.574l-6.83.78zm16.144 0v5.745h-2.681v5.235h2.681v8.655c0 4.76 2.149 7.672 7.056 7.672.92 0 1.958-.095 2.914-.24.887-.135 1.673-.298 2.017-.411.005-.006-.052-5.519-.052-5.539-.224.079-1.805.348-2.385.348-.561 0-1.394-.072-1.99-.69-.425-.44-.728-1.157-.728-2.322v-7.473h4.508V8.1h-4.508V1.574l-6.832.78zm36.212 23.425c0-2.158 1.729-3.907 3.86-3.907s3.86 1.749 3.86 3.907c0 2.16-1.729 3.908-3.86 3.908s-3.86-1.749-3.86-3.908zM.896 29.259h7.897c.534 0 1.18-.013 1.687-.04 10.807-.565 15.304-7.04 15.304-14.518 0-9.34-6.222-14.572-16.96-14.572-2.756 0-5.206.095-7.928.327V29.26zm10.094-5.704c-.29.024-.726.035-1.005.035H7.773c.003-.002 0-17.594 0-17.594.765-.069 1.737-.115 2.387-.115 4.056 0 8.378 2.665 8.378 8.82 0 6.421-4.062 8.563-7.548 8.854z" fill="#292930"/></svg>
